images/62493.svg

<?xml version="1.0" encoding="UTF-8"?>
<svg xmlns="http://www.w3.org/2000/svg" xmlns:xlink="http://www.w3.org/1999/xlink" width="300pt" height="300pt" viewBox="0 0 300 300" version="1.1">
<defs>
<g>
<symbol overflow="visible" id="glyph0-0">
<path style="stroke:none;" d="M 0.453125 1.59375 L 0.453125 -6.34375 L 4.953125 -6.34375 L 4.953125 1.59375 Z M 0.953125 1.09375 L 4.453125 1.09375 L 4.453125 -5.84375 L 0.953125 -5.84375 Z M 0.953125 1.09375 "/>
</symbol>
<symbol overflow="visible" id="glyph0-1">
<path style="stroke:none;" d="M 5.796875 -6.0625 L 5.796875 -5.125 C 5.492188 -5.394531 5.171875 -5.597656 4.828125 -5.734375 C 4.492188 -5.878906 4.140625 -5.953125 3.765625 -5.953125 C 3.015625 -5.953125 2.4375 -5.722656 2.03125 -5.265625 C 1.632812 -4.804688 1.4375 -4.144531 1.4375 -3.28125 C 1.4375 -2.414062 1.632812 -1.753906 2.03125 -1.296875 C 2.4375 -0.835938 3.015625 -0.609375 3.765625 -0.609375 C 4.140625 -0.609375 4.492188 -0.675781 4.828125 -0.8125 C 5.171875 -0.945312 5.492188 -1.15625 5.796875 -1.4375 L 5.796875 -0.5 C 5.484375 -0.289062 5.15625 -0.132812 4.8125 -0.03125 C 4.46875 0.0703125 4.097656 0.125 3.703125 0.125 C 2.710938 0.125 1.929688 -0.175781 1.359375 -0.78125 C 0.785156 -1.394531 0.5 -2.226562 0.5 -3.28125 C 0.5 -4.332031 0.785156 -5.160156 1.359375 -5.765625 C 1.929688 -6.378906 2.710938 -6.6875 3.703125 -6.6875 C 4.097656 -6.6875 4.46875 -6.632812 4.8125 -6.53125 C 5.164062 -6.425781 5.492188 -6.269531 5.796875 -6.0625 Z M 5.796875 -6.0625 "/>
</symbol>
<symbol overflow="visible" id="glyph0-2">
<path style="stroke:none;" d="M 0.84375 -6.84375 L 1.65625 -6.84375 L 1.65625 0 L 0.84375 0 Z M 0.84375 -6.84375 "/>
</symbol>
<symbol overflow="visible" id="glyph0-3">
<path style="stroke:none;" d="M 0.890625 -6.5625 L 2.078125 -6.5625 L 4.984375 -1.078125 L 4.984375 -6.5625 L 5.84375 -6.5625 L 5.84375 0 L 4.65625 0 L 1.75 -5.484375 L 1.75 0 L 0.890625 0 Z M 0.890625 -6.5625 "/>
</symbol>
<symbol overflow="visible" id="glyph0-4">
<path style="stroke:none;" d="M 0.890625 -6.5625 L 1.765625 -6.5625 L 1.765625 -3.875 L 5 -3.875 L 5 -6.5625 L 5.890625 -6.5625 L 5.890625 0 L 5 0 L 5 -3.125 L 1.765625 -3.125 L 1.765625 0 L 0.890625 0 Z M 0.890625 -6.5625 "/>
</symbol>
</g>
</defs>
<g id="surface23861">
<rect x="0" y="0" width="300" height="300" style="fill:rgb(100%,100%,100%);fill-opacity:1;stroke:none;"/>
<path style="fill:none;stroke-width:1.2;stroke-linecap:butt;stroke-linejoin:miter;stroke:rgb(0%,80%,0%);stroke-opacity:1;stroke-miterlimit:10;" d="M 35.25 174.109375 L 43.96875 168.800781 "/>
<path style="fill:none;stroke-width:1.2;stroke-linecap:butt;stroke-linejoin:miter;stroke:rgb(0%,0%,0%);stroke-opacity:1;stroke-miterlimit:10;" d="M 43.96875 168.800781 L 52.683594 163.492188 "/>
<path style=" stroke:none;fill-rule:nonzero;fill:rgb(100%,100%,100%);fill-opacity:1;" d="M 25.25 168.609375 L 35.25 168.609375 L 35.25 179.609375 L 25.25 179.609375 Z M 25.25 168.609375 "/>
<g style="fill:rgb(0%,80%,0%);fill-opacity:1;">
  <use xlink:href="#glyph0-1" x="25.25" y="177.272461"/>
  <use xlink:href="#glyph0-2" x="31.763672" y="177.272461"/>
</g>
<path style="fill:none;stroke-width:1.2;stroke-linecap:butt;stroke-linejoin:miter;stroke:rgb(0%,0%,0%);stroke-opacity:1;stroke-miterlimit:10;" d="M 52.683594 163.492188 L 52.210938 143.085938 "/>
<path style="fill:none;stroke-width:1.2;stroke-linecap:butt;stroke-linejoin:miter;stroke:rgb(0%,0%,0%);stroke-opacity:1;stroke-miterlimit:10;" d="M 57.4375 161.339844 L 57.058594 145.015625 "/>
<path style="fill:none;stroke-width:1.2;stroke-linecap:butt;stroke-linejoin:miter;stroke:rgb(0%,0%,0%);stroke-opacity:1;stroke-miterlimit:10;" d="M 70.59375 173.285156 L 52.683594 163.492188 "/>
<path style="fill:none;stroke-width:1.2;stroke-linecap:butt;stroke-linejoin:miter;stroke:rgb(0%,0%,0%);stroke-opacity:1;stroke-miterlimit:10;" d="M 52.210938 143.085938 L 69.644531 132.472656 "/>
<path style="fill:none;stroke-width:1.2;stroke-linecap:butt;stroke-linejoin:miter;stroke:rgb(0%,0%,0%);stroke-opacity:1;stroke-miterlimit:10;" d="M 69.644531 132.472656 L 87.554688 142.265625 "/>
<path style="fill:none;stroke-width:1.2;stroke-linecap:butt;stroke-linejoin:miter;stroke:rgb(0%,0%,0%);stroke-opacity:1;stroke-miterlimit:10;" d="M 69.132812 137.667969 L 83.460938 145.5 "/>
<path style="fill:none;stroke-width:1.2;stroke-linecap:butt;stroke-linejoin:miter;stroke:rgb(0%,0%,0%);stroke-opacity:1;stroke-miterlimit:10;" d="M 87.554688 142.265625 L 96.269531 136.957031 "/>
<path style="fill:none;stroke-width:1.2;stroke-linecap:butt;stroke-linejoin:miter;stroke:rgb(0%,0%,100%);stroke-opacity:1;stroke-miterlimit:10;" d="M 96.269531 136.957031 L 104.988281 131.652344 "/>
<path style="fill:none;stroke-width:1.2;stroke-linecap:butt;stroke-linejoin:miter;stroke:rgb(0%,0%,0%);stroke-opacity:1;stroke-miterlimit:10;" d="M 87.554688 142.265625 L 88.027344 162.671875 "/>
<path style="fill:none;stroke-width:1.2;stroke-linecap:butt;stroke-linejoin:miter;stroke:rgb(0%,0%,100%);stroke-opacity:1;stroke-miterlimit:10;" d="M 104.988281 131.652344 L 113.941406 136.546875 "/>
<path style="fill:none;stroke-width:1.2;stroke-linecap:butt;stroke-linejoin:miter;stroke:rgb(0%,0%,0%);stroke-opacity:1;stroke-miterlimit:10;" d="M 113.941406 136.546875 L 122.898438 141.441406 "/>
<path style=" stroke:none;fill-rule:nonzero;fill:rgb(100%,100%,100%);fill-opacity:1;" d="M 97.988281 126.152344 L 111.988281 126.152344 L 111.988281 137.152344 L 97.988281 137.152344 Z M 97.988281 126.152344 "/>
<g style="fill:rgb(0%,0%,100%);fill-opacity:1;">
  <use xlink:href="#glyph0-3" x="97.988281" y="134.81543"/>
  <use xlink:href="#glyph0-4" x="104.96582" y="134.81543"/>
</g>
<path style="fill:none;stroke-width:1.2;stroke-linecap:butt;stroke-linejoin:miter;stroke:rgb(0%,0%,0%);stroke-opacity:1;stroke-miterlimit:10;" d="M 122.898438 141.441406 L 123.136719 151.644531 "/>
<path style="fill:none;stroke-width:1.2;stroke-linecap:butt;stroke-linejoin:miter;stroke:rgb(0%,0%,100%);stroke-opacity:1;stroke-miterlimit:10;" d="M 123.136719 151.644531 L 123.375 161.847656 "/>
<path style="fill:none;stroke-width:1.2;stroke-linecap:butt;stroke-linejoin:miter;stroke:rgb(0%,0%,0%);stroke-opacity:1;stroke-miterlimit:10;" d="M 127.746094 143.371094 L 127.9375 151.535156 "/>
<path style="fill:none;stroke-width:1.2;stroke-linecap:butt;stroke-linejoin:miter;stroke:rgb(0%,0%,100%);stroke-opacity:1;stroke-miterlimit:10;" d="M 127.9375 151.535156 L 128.128906 159.695312 "/>
<path style="fill:none;stroke-width:1.2;stroke-linecap:butt;stroke-linejoin:miter;stroke:rgb(0%,0%,0%);stroke-opacity:1;stroke-miterlimit:10;" d="M 140.332031 130.828125 L 122.898438 141.441406 "/>
<path style="fill:none;stroke-width:1.2;stroke-linecap:butt;stroke-linejoin:miter;stroke:rgb(0%,0%,100%);stroke-opacity:1;stroke-miterlimit:10;" d="M 123.375 161.847656 L 132.328125 166.746094 "/>
<path style="fill:none;stroke-width:1.2;stroke-linecap:butt;stroke-linejoin:miter;stroke:rgb(0%,0%,0%);stroke-opacity:1;stroke-miterlimit:10;" d="M 132.328125 166.746094 L 141.28125 171.640625 "/>
<path style=" stroke:none;fill-rule:nonzero;fill:rgb(100%,100%,100%);fill-opacity:1;" d="M 120.375 156.347656 L 127.375 156.347656 L 127.375 167.347656 L 120.375 167.347656 Z M 120.375 156.347656 "/>
<g style="fill:rgb(0%,0%,100%);fill-opacity:1;">
  <use xlink:href="#glyph0-3" x="120.375" y="165.010742"/>
</g>
<path style="fill:none;stroke-width:1.2;stroke-linecap:butt;stroke-linejoin:miter;stroke:rgb(0%,0%,0%);stroke-opacity:1;stroke-miterlimit:10;" d="M 141.28125 171.640625 L 158.71875 161.027344 "/>
<path style="fill:none;stroke-width:1.2;stroke-linecap:butt;stroke-linejoin:miter;stroke:rgb(0%,0%,0%);stroke-opacity:1;stroke-miterlimit:10;" d="M 140.527344 166.476562 L 154.476562 157.984375 "/>
<path style="fill:none;stroke-width:1.2;stroke-linecap:butt;stroke-linejoin:miter;stroke:rgb(0%,0%,0%);stroke-opacity:1;stroke-miterlimit:10;" d="M 158.71875 161.027344 L 158.242188 140.621094 "/>
<path style="fill:none;stroke-width:1.2;stroke-linecap:butt;stroke-linejoin:miter;stroke:rgb(0%,0%,0%);stroke-opacity:1;stroke-miterlimit:10;" d="M 158.242188 140.621094 L 140.332031 130.828125 "/>
<path style="fill:none;stroke-width:1.2;stroke-linecap:butt;stroke-linejoin:miter;stroke:rgb(0%,0%,0%);stroke-opacity:1;stroke-miterlimit:10;" d="M 158.753906 135.425781 L 144.425781 127.59375 "/>
<path style="fill:none;stroke-width:1.2;stroke-linecap:butt;stroke-linejoin:miter;stroke:rgb(0%,0%,0%);stroke-opacity:1;stroke-miterlimit:10;" d="M 175.675781 130.003906 L 158.242188 140.621094 "/>
<path style="fill:none;stroke-width:1.2;stroke-linecap:butt;stroke-linejoin:miter;stroke:rgb(0%,0%,0%);stroke-opacity:1;stroke-miterlimit:10;" d="M 140.332031 130.828125 L 139.859375 110.421875 "/>
<path style="fill:none;stroke-width:1.2;stroke-linecap:butt;stroke-linejoin:miter;stroke:rgb(0%,0%,0%);stroke-opacity:1;stroke-miterlimit:10;" d="M 139.859375 110.421875 L 157.292969 99.808594 "/>
<path style="fill:none;stroke-width:1.2;stroke-linecap:butt;stroke-linejoin:miter;stroke:rgb(0%,0%,0%);stroke-opacity:1;stroke-miterlimit:10;" d="M 144.097656 113.460938 L 158.046875 104.972656 "/>
<path style="fill:none;stroke-width:1.2;stroke-linecap:butt;stroke-linejoin:miter;stroke:rgb(0%,0%,0%);stroke-opacity:1;stroke-miterlimit:10;" d="M 157.292969 99.808594 L 175.203125 109.597656 "/>
<path style="fill:none;stroke-width:1.2;stroke-linecap:butt;stroke-linejoin:miter;stroke:rgb(0%,0%,0%);stroke-opacity:1;stroke-miterlimit:10;" d="M 175.203125 109.597656 L 192.636719 98.984375 "/>
<path style="fill:none;stroke-width:1.2;stroke-linecap:butt;stroke-linejoin:miter;stroke:rgb(0%,0%,0%);stroke-opacity:1;stroke-miterlimit:10;" d="M 175.203125 109.597656 L 175.675781 130.003906 "/>
<path style="fill:none;stroke-width:1.2;stroke-linecap:butt;stroke-linejoin:miter;stroke:rgb(0%,0%,0%);stroke-opacity:1;stroke-miterlimit:10;" d="M 170.449219 111.75 L 170.828125 128.078125 "/>
<path style="fill:none;stroke-width:1.2;stroke-linecap:butt;stroke-linejoin:miter;stroke:rgb(0%,0%,0%);stroke-opacity:1;stroke-miterlimit:10;" d="M 175.675781 130.003906 L 184.632812 134.902344 "/>
<path style="fill:none;stroke-width:1.2;stroke-linecap:butt;stroke-linejoin:miter;stroke:rgb(0%,0%,100%);stroke-opacity:1;stroke-miterlimit:10;" d="M 184.632812 134.902344 L 193.585938 139.796875 "/>
<path style="fill:none;stroke-width:1.2;stroke-linecap:butt;stroke-linejoin:miter;stroke:rgb(0%,0%,100%);stroke-opacity:1;stroke-miterlimit:10;" d="M 193.585938 139.796875 L 193.824219 150 "/>
<path style="fill:none;stroke-width:1.2;stroke-linecap:butt;stroke-linejoin:miter;stroke:rgb(0%,0%,0%);stroke-opacity:1;stroke-miterlimit:10;" d="M 193.824219 150 L 194.0625 160.203125 "/>
<path style=" stroke:none;fill-rule:nonzero;fill:rgb(100%,100%,100%);fill-opacity:1;" d="M 186.585938 134.296875 L 200.585938 134.296875 L 200.585938 145.296875 L 186.585938 145.296875 Z M 186.585938 134.296875 "/>
<g style="fill:rgb(0%,0%,100%);fill-opacity:1;">
  <use xlink:href="#glyph0-3" x="186.585938" y="142.959961"/>
  <use xlink:href="#glyph0-4" x="193.563477" y="142.959961"/>
</g>
<path style="fill:none;stroke-width:1.2;stroke-linecap:butt;stroke-linejoin:miter;stroke:rgb(0%,0%,0%);stroke-opacity:1;stroke-miterlimit:10;" d="M 194.0625 160.203125 L 185.34375 165.511719 "/>
<path style="fill:none;stroke-width:1.2;stroke-linecap:butt;stroke-linejoin:miter;stroke:rgb(0%,0%,100%);stroke-opacity:1;stroke-miterlimit:10;" d="M 185.34375 165.511719 L 176.625 170.816406 "/>
<path style="fill:none;stroke-width:1.2;stroke-linecap:butt;stroke-linejoin:miter;stroke:rgb(0%,0%,0%);stroke-opacity:1;stroke-miterlimit:10;" d="M 194.816406 165.367188 L 187.839844 169.613281 "/>
<path style="fill:none;stroke-width:1.2;stroke-linecap:butt;stroke-linejoin:miter;stroke:rgb(0%,0%,100%);stroke-opacity:1;stroke-miterlimit:10;" d="M 187.839844 169.613281 L 180.867188 173.859375 "/>
<path style="fill:none;stroke-width:1.2;stroke-linecap:butt;stroke-linejoin:miter;stroke:rgb(0%,0%,0%);stroke-opacity:1;stroke-miterlimit:10;" d="M 211.972656 169.996094 L 194.0625 160.203125 "/>
<path style="fill:none;stroke-width:1.2;stroke-linecap:butt;stroke-linejoin:miter;stroke:rgb(0%,0%,100%);stroke-opacity:1;stroke-miterlimit:10;" d="M 176.625 170.816406 L 176.863281 181.019531 "/>
<path style="fill:none;stroke-width:1.2;stroke-linecap:butt;stroke-linejoin:miter;stroke:rgb(0%,0%,0%);stroke-opacity:1;stroke-miterlimit:10;" d="M 176.863281 181.019531 L 177.101562 191.222656 "/>
<path style=" stroke:none;fill-rule:nonzero;fill:rgb(100%,100%,100%);fill-opacity:1;" d="M 173.625 165.316406 L 180.625 165.316406 L 180.625 176.316406 L 173.625 176.316406 Z M 173.625 165.316406 "/>
<g style="fill:rgb(0%,0%,100%);fill-opacity:1;">
  <use xlink:href="#glyph0-3" x="173.625" y="173.979492"/>
</g>
<path style="fill:none;stroke-width:1.2;stroke-linecap:butt;stroke-linejoin:miter;stroke:rgb(0%,0%,0%);stroke-opacity:1;stroke-miterlimit:10;" d="M 177.101562 191.222656 L 195.011719 201.015625 "/>
<path style="fill:none;stroke-width:1.2;stroke-linecap:butt;stroke-linejoin:miter;stroke:rgb(0%,0%,0%);stroke-opacity:1;stroke-miterlimit:10;" d="M 181.195312 187.988281 L 195.523438 195.820312 "/>
<path style="fill:none;stroke-width:1.2;stroke-linecap:butt;stroke-linejoin:miter;stroke:rgb(0%,0%,0%);stroke-opacity:1;stroke-miterlimit:10;" d="M 195.011719 201.015625 L 212.445312 190.402344 "/>
<path style="fill:none;stroke-width:1.2;stroke-linecap:butt;stroke-linejoin:miter;stroke:rgb(0%,0%,0%);stroke-opacity:1;stroke-miterlimit:10;" d="M 212.445312 190.402344 L 211.972656 169.996094 "/>
<path style="fill:none;stroke-width:1.2;stroke-linecap:butt;stroke-linejoin:miter;stroke:rgb(0%,0%,0%);stroke-opacity:1;stroke-miterlimit:10;" d="M 207.597656 188.472656 L 207.21875 172.148438 "/>
<path style="fill:none;stroke-width:1.2;stroke-linecap:butt;stroke-linejoin:miter;stroke:rgb(0%,0%,0%);stroke-opacity:1;stroke-miterlimit:10;" d="M 211.972656 169.996094 L 229.40625 159.378906 "/>
<path style="fill:none;stroke-width:1.2;stroke-linecap:butt;stroke-linejoin:miter;stroke:rgb(0%,0%,0%);stroke-opacity:1;stroke-miterlimit:10;" d="M 229.40625 159.378906 L 238.359375 164.277344 "/>
<path style="fill:none;stroke-width:1.2;stroke-linecap:butt;stroke-linejoin:miter;stroke:rgb(0%,0%,100%);stroke-opacity:1;stroke-miterlimit:10;" d="M 238.359375 164.277344 L 247.316406 169.171875 "/>
<path style="fill:none;stroke-width:1.2;stroke-linecap:butt;stroke-linejoin:miter;stroke:rgb(0%,0%,0%);stroke-opacity:1;stroke-miterlimit:10;" d="M 233.5 156.144531 L 240.664062 160.0625 "/>
<path style="fill:none;stroke-width:1.2;stroke-linecap:butt;stroke-linejoin:miter;stroke:rgb(0%,0%,100%);stroke-opacity:1;stroke-miterlimit:10;" d="M 240.664062 160.0625 L 247.828125 163.980469 "/>
<path style="fill:none;stroke-width:1.2;stroke-linecap:butt;stroke-linejoin:miter;stroke:rgb(0%,0%,0%);stroke-opacity:1;stroke-miterlimit:10;" d="M 228.929688 138.972656 L 229.40625 159.378906 "/>
<path style="fill:none;stroke-width:1.2;stroke-linecap:butt;stroke-linejoin:miter;stroke:rgb(0%,0%,100%);stroke-opacity:1;stroke-miterlimit:10;" d="M 247.316406 169.171875 L 256.03125 163.863281 "/>
<path style="fill:none;stroke-width:1.2;stroke-linecap:butt;stroke-linejoin:miter;stroke:rgb(0%,0%,0%);stroke-opacity:1;stroke-miterlimit:10;" d="M 256.03125 163.863281 L 264.75 158.558594 "/>
<path style=" stroke:none;fill-rule:nonzero;fill:rgb(100%,100%,100%);fill-opacity:1;" d="M 244.316406 163.671875 L 251.316406 163.671875 L 251.316406 174.671875 L 244.316406 174.671875 Z M 244.316406 163.671875 "/>
<g style="fill:rgb(0%,0%,100%);fill-opacity:1;">
  <use xlink:href="#glyph0-3" x="244.316406" y="172.334961"/>
</g>
<path style="fill:none;stroke-width:1.2;stroke-linecap:butt;stroke-linejoin:miter;stroke:rgb(0%,0%,0%);stroke-opacity:1;stroke-miterlimit:10;" d="M 264.75 158.558594 L 264.511719 148.355469 "/>
<path style="fill:none;stroke-width:1.2;stroke-linecap:butt;stroke-linejoin:miter;stroke:rgb(0%,0%,100%);stroke-opacity:1;stroke-miterlimit:10;" d="M 264.511719 148.355469 L 264.273438 138.152344 "/>
<path style="fill:none;stroke-width:1.2;stroke-linecap:butt;stroke-linejoin:miter;stroke:rgb(0%,0%,0%);stroke-opacity:1;stroke-miterlimit:10;" d="M 259.902344 156.628906 L 259.710938 148.464844 "/>
<path style="fill:none;stroke-width:1.2;stroke-linecap:butt;stroke-linejoin:miter;stroke:rgb(0%,0%,100%);stroke-opacity:1;stroke-miterlimit:10;" d="M 259.710938 148.464844 L 259.519531 140.304688 "/>
<path style="fill:none;stroke-width:1.2;stroke-linecap:butt;stroke-linejoin:miter;stroke:rgb(0%,0%,100%);stroke-opacity:1;stroke-miterlimit:10;" d="M 264.273438 138.152344 L 255.320312 133.253906 "/>
<path style="fill:none;stroke-width:1.2;stroke-linecap:butt;stroke-linejoin:miter;stroke:rgb(0%,0%,0%);stroke-opacity:1;stroke-miterlimit:10;" d="M 255.320312 133.253906 L 246.367188 128.359375 "/>
<path style=" stroke:none;fill-rule:nonzero;fill:rgb(100%,100%,100%);fill-opacity:1;" d="M 261.273438 132.652344 L 268.273438 132.652344 L 268.273438 143.652344 L 261.273438 143.652344 Z M 261.273438 132.652344 "/>
<g style="fill:rgb(0%,0%,100%);fill-opacity:1;">
  <use xlink:href="#glyph0-3" x="261.273438" y="141.31543"/>
</g>
<path style="fill:none;stroke-width:1.2;stroke-linecap:butt;stroke-linejoin:miter;stroke:rgb(0%,0%,0%);stroke-opacity:1;stroke-miterlimit:10;" d="M 246.367188 128.359375 L 228.929688 138.972656 "/>
<path style="fill:none;stroke-width:1.2;stroke-linecap:butt;stroke-linejoin:miter;stroke:rgb(0%,0%,0%);stroke-opacity:1;stroke-miterlimit:10;" d="M 247.121094 133.523438 L 233.171875 142.015625 "/>
<path style="fill:none;stroke-width:1.2;stroke-linecap:butt;stroke-linejoin:miter;stroke:rgb(0%,0%,0%);stroke-opacity:1;stroke-miterlimit:10;" d="M 88.027344 162.671875 L 70.59375 173.285156 "/>
<path style="fill:none;stroke-width:1.2;stroke-linecap:butt;stroke-linejoin:miter;stroke:rgb(0%,0%,0%);stroke-opacity:1;stroke-miterlimit:10;" d="M 83.789062 159.628906 L 69.839844 168.121094 "/>
</g>
</svg>

<svg xmlns="http://www.w3.org/2000/svg" xmlns:xlink="http://www.w3.org/1999/xlink" width="300pt" height="300pt" viewBox="0 0 300 300"><defs><symbol overflow="visible"><path d="M.453 1.594v-7.938h4.5v7.938zm.5-.5h3.5v-6.938h-3.5zm0 0"/></symbol><symbol overflow="visible" id="a"><path d="M5.797-6.063v.938c-.305-.27-.625-.473-.97-.61-.335-.144-.686-.218-1.06-.218-.75 0-1.33.23-1.736.687-.397.46-.592 1.12-.592 1.985 0 .866.195 1.526.593 1.983.408.46.986.688 1.736.688.375 0 .726-.066 1.062-.203.344-.132.664-.343.97-.625V-.5c-.314.21-.642.367-.986.47-.343.1-.714.155-1.11.155-.99 0-1.772-.3-2.343-.906C.784-1.396.5-2.228.5-3.28c0-1.052.285-1.88.86-2.486.57-.613 1.35-.92 2.343-.92.395-.002.766.053 1.11.155.35.104.68.26.984.468zm0 0"/></symbol><symbol overflow="visible" id="b"><path d="M.844-6.844h.812V0H.844zm0 0"/></symbol><symbol overflow="visible" id="c"><path d="M.89-6.563H2.08l2.906 5.485v-5.484h.86V0H4.656L1.75-5.484V0H.89zm0 0"/></symbol><symbol overflow="visible" id="d"><path d="M.89-6.563h.876v2.688H5v-2.688h.89V0H5v-3.125H1.766V0H.89zm0 0"/></symbol></defs><g><path fill="#fff" d="M0 0h300v300H0z"/><path d="M35.25 174.11l8.72-5.31" stroke-width="1.2" stroke="#0c0" stroke-miterlimit="10" fill="none"/><path d="M43.97 168.8l8.714-5.308" stroke-width="1.2" stroke="#000" stroke-miterlimit="10" fill="none"/><path d="M25.25 168.61h10v11h-10zm0 0" fill="#fff"/><g fill="#0c0"><use xlink:href="#a" x="25.25" y="177.272"/><use xlink:href="#b" x="31.764" y="177.272"/></g><path d="M52.684 163.492l-.473-20.406M57.438 161.34l-.38-16.324M70.594 173.285l-17.91-9.793M52.21 143.086l17.435-10.613M69.645 132.473l17.91 9.793M69.133 137.668L83.46 145.5M87.555 142.266l8.715-5.31" stroke-width="1.2" stroke="#000" stroke-miterlimit="10" fill="none"/><path d="M96.27 136.957l8.718-5.305" stroke-width="1.2" stroke="#00f" stroke-miterlimit="10" fill="none"/><path d="M87.555 142.266l.472 20.406" stroke-width="1.2" stroke="#000" stroke-miterlimit="10" fill="none"/><path d="M104.988 131.652l8.953 4.895" stroke-width="1.2" stroke="#00f" stroke-miterlimit="10" fill="none"/><path d="M113.94 136.547l8.958 4.894" stroke-width="1.2" stroke="#000" stroke-miterlimit="10" fill="none"/><path d="M97.988 126.152h14v11h-14zm0 0" fill="#fff"/><g fill="#00f"><use xlink:href="#c" x="97.988" y="134.815"/><use xlink:href="#d" x="104.966" y="134.815"/></g><path d="M122.898 141.44l.24 10.205" stroke-width="1.2" stroke="#000" stroke-miterlimit="10" fill="none"/><path d="M123.137 151.645l.238 10.203" stroke-width="1.2" stroke="#00f" stroke-miterlimit="10" fill="none"/><path d="M127.746 143.37l.192 8.165" stroke-width="1.2" stroke="#000" stroke-miterlimit="10" fill="none"/><path d="M127.938 151.535l.19 8.16" stroke-width="1.2" stroke="#00f" stroke-miterlimit="10" fill="none"/><path d="M140.332 130.828l-17.434 10.613" stroke-width="1.2" stroke="#000" stroke-miterlimit="10" fill="none"/><path d="M123.375 161.848l8.953 4.898" stroke-width="1.2" stroke="#00f" stroke-miterlimit="10" fill="none"/><path d="M132.328 166.746l8.953 4.895" stroke-width="1.2" stroke="#000" stroke-miterlimit="10" fill="none"/><path d="M120.375 156.348h7v11h-7zm0 0" fill="#fff"/><use xlink:href="#c" x="120.375" y="165.011" fill="#00f"/><path d="M141.28 171.64l17.44-10.613M140.527 166.477l13.95-8.493M158.72 161.027l-.478-20.406M158.242 140.62l-17.91-9.792M158.754 135.426l-14.328-7.832M175.676 130.004l-17.434 10.617M140.332 130.828l-.473-20.406M139.86 110.422l17.433-10.613M144.098 113.46l13.95-8.487M157.293 99.81l17.91 9.788M175.203 109.598l17.434-10.614M175.203 109.598l.473 20.406M170.45 111.75l.378 16.328M175.676 130.004l8.957 4.898" stroke-width="1.2" stroke="#000" stroke-miterlimit="10" fill="none"/><path d="M184.633 134.902l8.953 4.895M193.586 139.797l.238 10.203" stroke-width="1.2" stroke="#00f" stroke-miterlimit="10" fill="none"/><path d="M193.824 150l.238 10.203" stroke-width="1.2" stroke="#000" stroke-miterlimit="10" fill="none"/><path d="M186.586 134.297h14v11h-14zm0 0" fill="#fff"/><g fill="#00f"><use xlink:href="#c" x="186.586" y="142.96"/><use xlink:href="#d" x="193.563" y="142.96"/></g><path d="M194.063 160.203l-8.72 5.31" stroke-width="1.2" stroke="#000" stroke-miterlimit="10" fill="none"/><path d="M185.344 165.512l-8.72 5.304" stroke-width="1.2" stroke="#00f" stroke-miterlimit="10" fill="none"/><path d="M194.816 165.367l-6.976 4.246" stroke-width="1.2" stroke="#000" stroke-miterlimit="10" fill="none"/><path d="M187.84 169.613l-6.973 4.246" stroke-width="1.2" stroke="#00f" stroke-miterlimit="10" fill="none"/><path d="M211.973 169.996l-17.91-9.793" stroke-width="1.2" stroke="#000" stroke-miterlimit="10" fill="none"/><path d="M176.625 170.816l.238 10.204" stroke-width="1.2" stroke="#00f" stroke-miterlimit="10" fill="none"/><path d="M176.863 181.02l.24 10.203" stroke-width="1.2" stroke="#000" stroke-miterlimit="10" fill="none"/><path d="M173.625 165.316h7v11h-7zm0 0" fill="#fff"/><use xlink:href="#c" x="173.625" y="173.979" fill="#00f"/><path d="M177.102 191.223l17.91 9.793M181.195 187.988l14.328 7.832M195.012 201.016l17.433-10.614M212.445 190.402l-.472-20.406M207.598 188.473l-.38-16.325M211.973 169.996l17.433-10.617M229.406 159.38l8.953 4.897" stroke-width="1.2" stroke="#000" stroke-miterlimit="10" fill="none"/><path d="M238.36 164.277l8.956 4.895" stroke-width="1.2" stroke="#00f" stroke-miterlimit="10" fill="none"/><path d="M233.5 156.145l7.164 3.917" stroke-width="1.2" stroke="#000" stroke-miterlimit="10" fill="none"/><path d="M240.664 160.063l7.164 3.917" stroke-width="1.2" stroke="#00f" stroke-miterlimit="10" fill="none"/><path d="M228.93 138.973l.476 20.406" stroke-width="1.2" stroke="#000" stroke-miterlimit="10" fill="none"/><path d="M247.316 169.172l8.715-5.31" stroke-width="1.2" stroke="#00f" stroke-miterlimit="10" fill="none"/><path d="M256.03 163.863l8.72-5.304" stroke-width="1.2" stroke="#000" stroke-miterlimit="10" fill="none"/><path d="M244.316 163.672h7v11h-7zm0 0" fill="#fff"/><use xlink:href="#c" x="244.316" y="172.335" fill="#00f"/><path d="M264.75 158.56l-.238-10.205" stroke-width="1.2" stroke="#000" stroke-miterlimit="10" fill="none"/><path d="M264.512 148.355l-.24-10.203" stroke-width="1.2" stroke="#00f" stroke-miterlimit="10" fill="none"/><path d="M259.902 156.63l-.19-8.165" stroke-width="1.2" stroke="#000" stroke-miterlimit="10" fill="none"/><path d="M259.71 148.465l-.19-8.16M264.273 138.152l-8.953-4.898" stroke-width="1.2" stroke="#00f" stroke-miterlimit="10" fill="none"/><path d="M255.32 133.254l-8.953-4.895" stroke-width="1.2" stroke="#000" stroke-miterlimit="10" fill="none"/><path d="M261.273 132.652h7v11h-7zm0 0" fill="#fff"/><use xlink:href="#c" x="261.273" y="141.315" fill="#00f"/><path d="M246.367 128.36l-17.437 10.613M247.12 133.523l-13.948 8.493M88.027 162.672l-17.433 10.613M83.79 159.63l-13.95 8.49" stroke-width="1.2" stroke="#000" stroke-miterlimit="10" fill="none"/></g></svg>
